src/icon-mask.svg

<?xml version="1.0" encoding="UTF-8"?>
<svg width="32px" height="28px" viewBox="0 0 32 28" version="1.1" xmlns="http://www.w3.org/2000/svg" xmlns:xlink="http://www.w3.org/1999/xlink">
    <!-- Generator: Sketch 52.2 (67145) - http://www.bohemiancoding.com/sketch -->
    <title>Untitled</title>
    <desc>Created with Sketch.</desc>
    <g id="Page-1" stroke="none" stroke-width="1" fill="none" fill-rule="evenodd">
        <g id="icon-mask" fill="#A9A0A0" fill-rule="nonzero">
            <path d="M16.219,20.439 C13.337,20.439 10.999,18.102 10.999,15.219 C11,12.337 13.338,10 16.22,10 C19.087,10.039 21.401,12.353 21.44,15.22 C21.439,18.102 19.102,20.439 16.219,20.439 Z M32,23.6 C31.983,25.968 30.068,27.883 27.7,27.9 L4.3,27.9 C3.157,27.909 2.058,27.458 1.25,26.65 C0.442,25.842 -0.01,24.743 0,23.6 L0,8.6 C0.017,6.232 1.932,4.317 4.3,4.3 L8,4.3 L8.8,2 C9.3,0.83 10.429,0.052 11.7,0 L20.3,0 C21.571,0.052 22.7,0.83 23.2,2 L24,4.4 L27.7,4.4 C28.843,4.391 29.942,4.842 30.75,5.65 C31.558,6.458 32.009,7.557 32,8.7 L32,23.6 Z M3.99983753,12 C5.10440703,12 5.99983753,11.1045695 5.99983753,10 C5.99983753,8.8954305 5.10440703,8 3.99983753,8 C2.89526803,8 1.99983753,8.8954305 1.99983753,10 C1.99983753,11.1045695 2.89526803,12 3.99983753,12 Z M24.31,15.155 C24.31,10.651 20.66,7 16.156,7 C11.651,7 8,10.651 8,15.155 C8,19.659 11.651,23.311 16.155,23.311 C18.319,23.314 20.395,22.455 21.925,20.925 C23.455,19.395 24.313,17.319 24.311,15.155 L24.31,15.155 Z" id="Shape"></path>
        </g>
    </g>
</svg>

<svg width="32" height="28" viewBox="0 0 32 28" xmlns="http://www.w3.org/2000/svg">
    <path d="M21.439 15.22c0 2.882-2.337 5.219-5.22 5.219-2.882 0-5.22-2.337-5.22-5.22C11 12.337 13.338 10 16.22 10c2.867.039 5.181 2.353 5.22 5.22zM32 8.7v14.9c-.017 2.368-1.932 4.283-4.3 4.3H4.3c-1.143.009-2.242-.442-3.05-1.25C.442 25.842-.01 24.743 0 23.6v-15c.017-2.368 1.932-4.283 4.3-4.3H8L8.8 2C9.3.83 10.429.052 11.7 0h8.6c1.271.052 2.4.83 2.9 2l.8 2.4h3.7c1.143-.009 2.242.442 3.05 1.25.808.808 1.259 1.907 1.25 3.05zm-7.69 6.455C24.31 10.651 20.66 7 16.156 7 11.651 7 8 10.651 8 15.155s3.651 8.156 8.155 8.156c2.164.003 4.24-.856 5.77-2.386 1.53-1.53 2.388-3.606 2.386-5.77z" fill="#A9A0A0" fill-rule="nonzero"/>
</svg>
